src/Assets/Project-Workflows/operations-optimizer-workflow.svg

<?xml version="1.0" encoding="UTF-8" standalone="no"?>
<svg
   viewBox="0 0 800 450"
   width="800"
   height="450"
   version="1.1"
   id="svg23"
   sodipodi:docname="operations-optimizer-workflow.svg"
   inkscape:version="1.3 (0e150ed6c4, 2023-07-21)"
   xmlns:inkscape="http://www.inkscape.org/namespaces/inkscape"
   xmlns:sodipodi="http://sodipodi.sourceforge.net/DTD/sodipodi-0.dtd"
   xmlns="http://www.w3.org/2000/svg"
   xmlns:svg="http://www.w3.org/2000/svg">
  <sodipodi:namedview
     id="namedview23"
     pagecolor="#ffffff"
     bordercolor="#000000"
     borderopacity="0.25"
     inkscape:showpageshadow="2"
     inkscape:pageopacity="0.0"
     inkscape:pagecheckerboard="0"
     inkscape:deskcolor="#d1d1d1"
     inkscape:zoom="0.65375"
     inkscape:cx="301.33843"
     inkscape:cy="240.91778"
     inkscape:window-width="1920"
     inkscape:window-height="1111"
     inkscape:window-x="-9"
     inkscape:window-y="-9"
     inkscape:window-maximized="1"
     inkscape:current-layer="svg23" />
  <!-- Background -->
  <defs
     id="defs2">
    <linearGradient
       id="bg"
       x1="0%"
       y1="0%"
       x2="100%"
       y2="100%">
      <stop
         offset="0%"
         style="stop-color:#f8fafc;stop-opacity:1"
         id="stop1" />
      <stop
         offset="100%"
         style="stop-color:#e2e8f0;stop-opacity:1"
         id="stop2" />
    </linearGradient>
  </defs>
  <path
     d="m 179.041,225.74069 h 68.05667"
     stroke="#cbd5e0"
     stroke-width="3.50003"
     fill="none"
     id="path17-7" />
  <polygon
     points="440,225 430,220 430,230 "
     fill="#cbd5e0"
     id="polygon17-2"
     transform="matrix(1.3611333,0,0,1,-338.18967,0.74068737)" />
  <path
     d="m 571,225 h 50"
     stroke="#cbd5e0"
     stroke-width="3"
     fill="none"
     id="path17-9" />
  <polygon
     points="430,230 440,225 430,220 "
     fill="#cbd5e0"
     id="polygon17-9"
     transform="translate(191)" />
  <!-- Title -->
  <text
     x="400"
     y="60"
     font-family="system-ui"
     font-size="22"
     font-weight="700"
     fill="#1e293b"
     text-anchor="middle"
     id="text2">API Orchestration System</text>
  <text
     x="400"
     y="85"
     font-family="system-ui"
     font-size="13"
     fill="#64748b"
     text-anchor="middle"
     id="text3">Three APIs → One Unified Pipeline</text>
  <!-- Three APIs (Left) -->
  <g
     transform="translate(110, 140)"
     id="g5">
    <rect
       x="-60"
       y="-30"
       width="120"
       height="60"
       rx="8"
       fill="#fee2e2"
       stroke="#ef4444"
       stroke-width="2.5"
       id="rect3" />
    <text
       x="0"
       y="-3"
       font-family="system-ui"
       font-size="13"
       font-weight="700"
       fill="#ef4444"
       text-anchor="middle"
       id="text4">API 1</text>
    <text
       x="0"
       y="14"
       font-family="system-ui"
       font-size="10"
       fill="#991b1b"
       text-anchor="middle"
       id="text5">Logistics</text>
  </g>
  <g
     transform="translate(110, 225)"
     id="g7">
    <rect
       x="-60"
       y="-30"
       width="120"
       height="60"
       rx="8"
       fill="#dbeafe"
       stroke="#3b82f6"
       stroke-width="2.5"
       id="rect5" />
    <text
       x="0"
       y="-3"
       font-family="system-ui"
       font-size="13"
       font-weight="700"
       fill="#3b82f6"
       text-anchor="middle"
       id="text6">API 2</text>
    <text
       x="0"
       y="14"
       font-family="system-ui"
       font-size="10"
       fill="#1e40af"
       text-anchor="middle"
       id="text7">Fulfillment</text>
  </g>
  <g
     transform="translate(110, 310)"
     id="g9">
    <rect
       x="-60"
       y="-30"
       width="120"
       height="60"
       rx="8"
       fill="#dcfce7"
       stroke="#22c55e"
       stroke-width="2.5"
       id="rect7" />
    <text
       x="0"
       y="-3"
       font-family="system-ui"
       font-size="13"
       font-weight="700"
       fill="#22c55e"
       text-anchor="middle"
       id="text8">API 3</text>
    <text
       x="0"
       y="14"
       font-family="system-ui"
       font-size="10"
       fill="#15803d"
       text-anchor="middle"
       id="text9">Shipping</text>
  </g>
  <!-- Merge Arrows -->
  <path
     d="m 179.94526,310.0485 58.84869,-83.6564"
     stroke="#cbd5e0"
     stroke-width="2.35989"
     fill="none"
     id="path11" />
  <!-- Integration -->
  <g
     transform="translate(320, 225)"
     id="g17">
    <circle
       cx="0"
       cy="0"
       r="50"
       fill="#fef3c7"
       stroke="#f59e0b"
       stroke-width="3"
       id="circle11" />
    <circle
       cx="0"
       cy="-12"
       r="8"
       fill="#f59e0b"
       opacity="0.3"
       id="circle12" />
    <circle
       cx="0"
       cy="0"
       r="8"
       fill="#f59e0b"
       opacity="0.6"
       id="circle13" />
    <circle
       cx="0"
       cy="12"
       r="8"
       fill="#f59e0b"
       id="circle14" />
    <path
       d="M -20 -12 L -10 -12 M 20 -12 L 10 -12"
       stroke="#f59e0b"
       stroke-width="2.5"
       stroke-linecap="round"
       id="path14" />
    <path
       d="M -20 0 L -10 0 M 20 0 L 10 0"
       stroke="#f59e0b"
       stroke-width="2.5"
       stroke-linecap="round"
       id="path15" />
    <path
       d="M -20 12 L -10 12 M 20 12 L 10 12"
       stroke="#f59e0b"
       stroke-width="2.5"
       stroke-linecap="round"
       id="path16" />
    <text
       x="0"
       y="72"
       font-family="system-ui"
       font-size="14"
       font-weight="700"
       fill="#f59e0b"
       text-anchor="middle"
       id="text16">Integrate</text>
    <text
       x="0"
       y="89"
       font-family="system-ui"
       font-size="10"
       fill="#64748b"
       text-anchor="middle"
       id="text17">R Script</text>
  </g>
  <!-- Arrow -->
  <path
     d="m 385,225 h 50"
     stroke="#cbd5e0"
     stroke-width="3"
     fill="none"
     id="path17" />
  <polygon
     points="440,225 430,220 430,230 "
     fill="#cbd5e0"
     id="polygon17"
     transform="translate(5)" />
  <!-- Reconcile -->
  <g
     transform="translate(510, 225)"
     id="g19">
    <circle
       cx="0"
       cy="0"
       r="50"
       fill="#e0f2fe"
       stroke="#0ea5e9"
       stroke-width="3"
       id="circle17" />
    <circle
       cx="0"
       cy="0"
       r="26"
       fill="none"
       stroke="#ef4444"
       stroke-width="3"
       id="circle18" />
    <path
       d="M -12 0 L -3 9 L 14 -12"
       fill="none"
       stroke="#22c55e"
       stroke-width="4.5"
       stroke-linecap="round"
       stroke-linejoin="round"
       id="path18" />
    <text
       x="0"
       y="72"
       font-family="system-ui"
       font-size="14"
       font-weight="700"
       fill="#0ea5e9"
       text-anchor="middle"
       id="text18">Reconcile</text>
    <text
       x="0"
       y="89"
       font-family="system-ui"
       font-size="10"
       fill="#64748b"
       text-anchor="middle"
       id="text19">Auto-Fix</text>
  </g>
  <!-- Arrow -->
  <!-- Unified Database -->
  <g
     transform="translate(690, 225)"
     id="g21">
    <circle
       cx="0"
       cy="0"
       r="48"
       fill="#dcfce7"
       stroke="#22c55e"
       stroke-width="3"
       id="circle19" />
    <ellipse
       cx="0"
       cy="-8"
       rx="22"
       ry="8"
       fill="none"
       stroke="#22c55e"
       stroke-width="3"
       id="ellipse19" />
    <line
       x1="-22"
       y1="-8"
       x2="-22"
       y2="8"
       stroke="#22c55e"
       stroke-width="3"
       id="line19" />
    <line
       x1="22"
       y1="-8"
       x2="22"
       y2="8"
       stroke="#22c55e"
       stroke-width="3"
       id="line20" />
    <ellipse
       cx="0"
       cy="8"
       rx="22"
       ry="8"
       fill="none"
       stroke="#22c55e"
       stroke-width="3"
       id="ellipse20" />
    <text
       x="0"
       y="68"
       font-family="system-ui"
       font-size="14"
       font-weight="700"
       fill="#22c55e"
       text-anchor="middle"
       id="text20">Unified</text>
    <text
       x="0"
       y="85"
       font-family="system-ui"
       font-size="10"
       fill="#64748b"
       text-anchor="middle"
       id="text21">PostgreSQL</text>
  </g>
  <!-- Labels -->
  <text
     x="115.35373"
     y="96.872559"
     font-family="system-ui"
     font-size="12px"
     font-weight="600"
     fill="#64748b"
     text-anchor="middle"
     id="text22">Fragmented Data</text>
  <text
     x="690"
     y="115"
     font-family="system-ui"
     font-size="12"
     font-weight="600"
     fill="#22c55e"
     text-anchor="middle"
     id="text23">Complete Tracking</text>
  <path
     d="m 179.96861,136.29708 58.71816,88.68147"
     stroke="#cbd5e0"
     stroke-width="2.42704"
     fill="none"
     id="path11-9" />
</svg>

<svg xmlns="http://www.w3.org/2000/svg" width="800" height="450" viewBox="0 0 800 450"><path fill="none" stroke="#cbd5e0" stroke-width="3.5" d="M179.041 225.74h68.057"/><path fill="#cbd5e0" d="m260.709 225.74-13.611-5v10z"/><path fill="none" stroke="#cbd5e0" stroke-width="3" d="M571 225h50"/><path fill="#cbd5e0" d="m621 230 10-5-10-5z"/><text x="400" y="60" fill="#1e293b" font-family="system-ui" font-size="22" font-weight="700" text-anchor="middle">API Orchestration System</text><text x="400" y="85" fill="#64748b" font-family="system-ui" font-size="13" text-anchor="middle">Three APIs → One Unified Pipeline</text><g transform="translate(110 140)"><rect width="120" height="60" x="-60" y="-30" fill="#fee2e2" stroke="#ef4444" stroke-width="2.5" rx="8"/><text y="-3" fill="#ef4444" font-family="system-ui" font-size="13" font-weight="700" text-anchor="middle">API 1</text><text y="14" fill="#991b1b" font-family="system-ui" font-size="10" text-anchor="middle">Logistics</text></g><g transform="translate(110 225)"><rect width="120" height="60" x="-60" y="-30" fill="#dbeafe" stroke="#3b82f6" stroke-width="2.5" rx="8"/><text y="-3" fill="#3b82f6" font-family="system-ui" font-size="13" font-weight="700" text-anchor="middle">API 2</text><text y="14" fill="#1e40af" font-family="system-ui" font-size="10" text-anchor="middle">Fulfillment</text></g><g transform="translate(110 310)"><rect width="120" height="60" x="-60" y="-30" fill="#dcfce7" stroke="#22c55e" stroke-width="2.5" rx="8"/><text y="-3" fill="#22c55e" font-family="system-ui" font-size="13" font-weight="700" text-anchor="middle">API 3</text><text y="14" fill="#15803d" font-family="system-ui" font-size="10" text-anchor="middle">Shipping</text></g><path fill="none" stroke="#cbd5e0" stroke-width="2.36" d="m179.945 310.049 58.849-83.657"/><g transform="translate(320 225)"><circle r="50" fill="#fef3c7" stroke="#f59e0b" stroke-width="3"/><circle cy="-12" r="8" fill="#f59e0b" opacity=".3"/><circle r="8" fill="#f59e0b" opacity=".6"/><circle cy="12" r="8" fill="#f59e0b"/><path stroke="#f59e0b" stroke-linecap="round" stroke-width="2.5" d="M-20-12h10m30 0H10M-20 0h10m30 0H10M-20 12h10m30 0H10"/><text y="72" fill="#f59e0b" font-family="system-ui" font-size="14" font-weight="700" text-anchor="middle">Integrate</text><text y="89" fill="#64748b" font-family="system-ui" font-size="10" text-anchor="middle">R Script</text></g><path fill="none" stroke="#cbd5e0" stroke-width="3" d="M385 225h50"/><path fill="#cbd5e0" d="m445 225-10-5v10z"/><g transform="translate(510 225)"><circle r="50" fill="#e0f2fe" stroke="#0ea5e9" stroke-width="3"/><circle r="26" fill="none" stroke="#ef4444" stroke-width="3"/><path fill="none" stroke="#22c55e" stroke-linecap="round" stroke-linejoin="round" stroke-width="4.5" d="m-12 0 9 9 17-21"/><text y="72" fill="#0ea5e9" font-family="system-ui" font-size="14" font-weight="700" text-anchor="middle">Reconcile</text><text y="89" fill="#64748b" font-family="system-ui" font-size="10" text-anchor="middle">Auto-Fix</text></g><g transform="translate(690 225)"><circle r="48" fill="#dcfce7" stroke="#22c55e" stroke-width="3"/><ellipse cy="-8" fill="none" stroke="#22c55e" stroke-width="3" rx="22" ry="8"/><path stroke="#22c55e" stroke-width="3" d="M-22-8V8M22-8V8"/><ellipse cy="8" fill="none" stroke="#22c55e" stroke-width="3" rx="22" ry="8"/><text y="68" fill="#22c55e" font-family="system-ui" font-size="14" font-weight="700" text-anchor="middle">Unified</text><text y="85" fill="#64748b" font-family="system-ui" font-size="10" text-anchor="middle">PostgreSQL</text></g><text x="115.354" y="96.873" fill="#64748b" font-family="system-ui" font-size="12" font-weight="600" text-anchor="middle">Fragmented Data</text><text x="690" y="115" fill="#22c55e" font-family="system-ui" font-size="12" font-weight="600" text-anchor="middle">Complete Tracking</text><path fill="none" stroke="#cbd5e0" stroke-width="2.427" d="m179.969 136.297 58.718 88.682"/></svg>
